FlatUX/src/svg/Nintendo - Virtual Boy-content.svg

<svg enable-background="new 0 0 256 256" viewBox="0 0 256 256" xmlns="http://www.w3.org/2000/svg"><path d="m240.258 211.556h-1.42c-2.632-2.186-6.035-3.556-9.806-3.556h-202.064c-3.77 0-7.174 1.37-9.806 3.556h-1.42c-2.066 0-3.742 1.592-3.742 3.555v7.111 3.555c0 7.856 6.701 14.223 14.968 14.223h202.064c8.267 0 14.968-6.367 14.968-14.222v-3.555-7.111c0-1.964-1.675-3.556-3.742-3.556z" fill="#223140"/><path d="m229.032 16h-202.064c-8.267 0-14.968 6.75-14.968 15.077v162.077 15.077c0 2.082 1.675 3.769 3.742 3.769h224.516c2.066 0 3.742-1.688 3.742-3.769v-15.077-162.077c0-8.327-6.701-15.077-14.968-15.077z" fill="#2b3e51"/><path d="m37.76 20h180.48c2.077 0 3.76 1.619 3.76 3.615v180.769c0 1.997-1.683 3.615-3.76 3.615h-180.48c-2.077 0-3.76-1.619-3.76-3.615v-180.769c0-1.996 1.683-3.615 3.76-3.615z" fill="#35495f"/><path d="m55.45 36h145.1c4.114 0 7.45 3.377 7.45 7.543v116.914c0 4.166-3.335 7.543-7.45 7.543h-145.1c-4.114 0-7.45-3.377-7.45-7.543v-116.914c0-4.166 3.335-7.543 7.45-7.543z" fill="#1b80bb"/><path d="m121.866 188h12.268c1.488 0 2.375 1.539 1.55 2.689l-6.134 8.541c-.737 1.027-2.363 1.027-3.1 0l-6.134-8.541c-.825-1.15.062-2.689 1.55-2.689z" fill="#2b3e51"/></svg>

<svg xmlns="http://www.w3.org/2000/svg" viewBox="0 0 256 256"><path fill="#223140" d="M240.258 211.556h-1.42c-2.632-2.186-6.035-3.556-9.806-3.556H26.968c-3.77 0-7.174 1.37-9.806 3.556h-1.42c-2.066 0-3.742 1.592-3.742 3.555v10.666C12 233.633 18.701 240 26.968 240h202.064c8.267 0 14.968-6.367 14.968-14.222v-10.666c0-1.964-1.675-3.556-3.742-3.556"/><path fill="#2b3e51" d="M229.032 16H26.968C18.701 16 12 22.75 12 31.077v177.154c0 2.082 1.675 3.769 3.742 3.769h224.516c2.066 0 3.742-1.688 3.742-3.769V31.077C244 22.75 237.299 16 229.032 16"/><path fill="#35495f" d="M37.76 20h180.48c2.077 0 3.76 1.619 3.76 3.615v180.769c0 1.997-1.683 3.615-3.76 3.615H37.76c-2.077 0-3.76-1.619-3.76-3.615V23.615C34 21.619 35.683 20 37.76 20"/><path fill="#1b80bb" d="M55.45 36h145.1c4.114 0 7.45 3.377 7.45 7.543v116.914c0 4.166-3.335 7.543-7.45 7.543H55.45c-4.114 0-7.45-3.377-7.45-7.543V43.543C48 39.377 51.335 36 55.45 36"/><path fill="#2b3e51" d="M121.866 188h12.268c1.488 0 2.375 1.539 1.55 2.689l-6.134 8.541c-.737 1.027-2.363 1.027-3.1 0l-6.134-8.541c-.825-1.15.062-2.689 1.55-2.689"/></svg>
